X: 0008
T: Slufre-l\aaten efter Anders Besselius
O: M.E.
%R: polska
B: Paul B\"ackstr\"om's "L\aatar fr\aan Dalarna" collection" 1974
Z: 2022 John Chambers <jc:trillian.mit.edu>
M: 3/4
L: 1/8
P: (G-str\"angen uppst\"amd till a.)
K: Am
%%text K.E.F. 15.
%%slurgraces 1
%%graceslurs 1
% - - - - - - - - - -
[|\
[AA,]>^G A^c eg | gf/e/ de =cB |\
{B}[AA,]>^G A^c eg | gf/e/ de =c2 |\
{c}"_>"B>d cA B^G | (3("^<"ABc) A4 ||
|:\
"^>"B>d cA B^G | (3("_>"ABc) AA ^G2 |\
"_>"B>d (3(cAc) (3(B^GB) | "_>"Ac e4 |\
"_>"B>d (3(cAc) B^G | (3(ABc) A4 :|
% - - - - - - - - - -
%%text Jmf. S.L.nr 497, 687.   13-15-20

%%sep 2 1 500
%%sep 1 1 500

